X: 39671
T: Tenpenny Bit, The
R: jig
M: 6/8
K: Gmajor
|:edB G2A|Bed Bcd|edB G2A|BAF GFE|
DB,D G2A|Bed Bcd|edB gdB|BAG ABd:|
|:e2f ~g3|eag fed|e2f ~g3|efg ~a3|
bag agf|gfe def|~g3 fdB|BAG ABd:|

